X:655
T:Mr. Baillie of Mellerstain
R:Strathspey
C:Nathaniel Gow
B:The Athole Collection
M:C
L:1/8
K:E Minor
e|B<E B>d D>E F<d|B>EB>F E>F G<A|B<dF<d D>E F<d|B>EB>F E2E:|
|:g/a/|b<e e>f d>ef>a|b<(e e)>g e>ge<B|d>fB>d D>EF>d|1 B<E B>F E2E:|2
E>e B/A/G/F/ E2 E||

